static/assets/images/icons/drops.svg

<svg width="256" height="256" viewBox="0 0 256 256" fill="none" xmlns="http://www.w3.org/2000/svg">
<path d="M202.941 31.7108C189.422 26.2158 176.439 27.2847 165.304 31.9054L103.259 58.5052C101.667 59.1567 100.283 60.2331 99.2576 61.6177C98.2319 63.0023 97.6035 64.6422 97.4407 66.3596C97.2779 68.077 97.5868 69.8063 98.3339 71.3601C99.0811 72.9138 100.238 74.2327 101.679 75.1737L156.861 112.535C163.559 117.105 171.408 120.307 180.128 121.139C209.551 123.947 235.251 100.817 232.843 71.009C231.422 53.7727 219.48 38.475 202.948 31.7115M204.915 172.917C200.391 161.717 192.082 154.887 182.84 151.142L130.504 131.145C124.561 128.847 118.421 133.937 119.466 140.283L129.053 194.822C130.22 201.468 132.832 207.891 137.454 213.504C141.171 218.007 145.827 221.639 151.093 224.143C156.36 226.647 162.109 227.963 167.937 227.999C173.765 228.035 179.53 226.789 184.826 224.35C190.123 221.91 194.822 218.336 198.594 213.879C208.177 202.734 210.491 186.59 204.915 172.917ZM92.5064 146.141C96.0887 154.381 96.9342 164.04 92.7473 174.004C87.6519 186.198 75.9106 195.016 62.7398 195.937C57.5272 196.374 52.2825 195.659 47.3754 193.841C42.4684 192.024 38.0185 189.148 34.3395 185.418C30.6606 181.687 27.8422 177.192 26.083 172.25C24.3238 167.307 23.6668 162.038 24.1581 156.813C24.7674 150.387 27.1462 144.556 30.6422 139.603L59.1282 98.9169C59.8773 97.849 60.8947 96.999 62.077 96.453C63.2594 95.9071 64.5646 95.6847 65.8604 95.8083C67.1561 95.932 68.3961 96.3973 69.4547 97.1571C70.5132 97.9169 71.3526 98.9442 71.8877 100.135L92.5064 146.141Z" fill="black"/>
</svg>

<svg xmlns="http://www.w3.org/2000/svg" fill="none" viewBox="0 0 256 256"><path fill="#000" d="M202.941 31.71c-13.519-5.494-26.502-4.425-37.637.195l-62.045 26.6a9.4 9.4 0 0 0-4.001 3.113 9.47 9.47 0 0 0-.924 9.742 9.44 9.44 0 0 0 3.345 3.814l55.182 37.361c6.698 4.57 14.547 7.772 23.267 8.604 29.423 2.808 55.123-20.322 52.715-50.13-1.421-17.236-13.363-32.534-29.895-39.297m1.967 141.205c-4.524-11.2-12.833-18.03-22.075-21.775l-52.336-19.997c-5.943-2.298-12.083 2.792-11.038 9.138l9.587 54.539c1.167 6.646 3.779 13.069 8.401 18.682a39.9 39.9 0 0 0 13.639 10.639 39.79 39.79 0 0 0 33.733.207 39.9 39.9 0 0 0 13.768-10.471c9.583-11.145 11.897-27.289 6.321-40.962M92.506 146.141c3.583 8.24 4.428 17.899.241 27.863-5.095 12.194-16.836 21.012-30.007 21.933a35.65 35.65 0 0 1-15.365-2.096 35.75 35.75 0 0 1-13.035-8.423 35.9 35.9 0 0 1-8.257-13.168 36 36 0 0 1-1.925-15.437c.61-6.426 2.988-12.257 6.484-17.21l28.486-40.686a7.4 7.4 0 0 1 2.949-2.464 7.36 7.36 0 0 1 7.378.704 7.4 7.4 0 0 1 2.433 2.978z"/></svg>
